!!!OTL: Peter Rambelay
!!!ONM: 138.
**kern
*clefG2
*k[b-]
*F:
*M4/4
*MM82
{4c
=1
4.f
8g
4a
4c
=2
4.f
8e
4d}
{4c
=3
8d
4.f
4.f
8e
=4
2f
4r}
{8cc
8cc
=5
4cc
8a
8g
(8f
8g)
4a
=6
2dd
4cc}
{(8dd
8cc)
=7
4.a
8f
4f
4B-
=8
2c
4r}
{4cc
=9
4cc
(8a
8g)
4f
8a
8cc
=10
4.dd
8dd
4cc}
{8dd
8cc
=11
4.a
8f
4f
8d
8B-
=12
2c
4r}
{4c
=13
4.f
8g
4a
4c
=14
4.f
8e
4d}
{4c
=15
4.d
8f
4f
4e
=16
2f
4r}
==
*-
!!!CNT: Folksongs of Maritime Canada
!!!MRD: 1928///-1932///
!!!OCL: Helen Creighton
!!!YOR: Songs and Ballads from Nova Scotia
!!!PPR: J.M. Dent & Sons, Limited
!!!PPP: Toronto, Canada
!!!PDT: 1932///
!!!reprint: Dover Publications, 1992: ISBN 0-486-21703-5
!!!ENC1: Craig Stuart Sapp (music and bibliographic data)                       
!!!ENC2: Marcus Pearce (phrase markings and key designations)                   
!!!ENC3: Darrell Conklin (phrase markings and key designations)   
!!!END: 2002/04/10/
!!!EEV: 2004/06/05
!!!MPN: Mr. Richard Hartlan
!!!PPG: 301
!!!EFL: 140/152
!!!ARE: Canada; Nova Scotia
!!!verses: 13
!!!VTS: 2202010273
